X:208
T:Anna TS.208
M:C|
L:1/8
Q:1/4=120
S:Thomas Sands’ MS,1810,Lincolnshire
N:In a different hand, possibly by a child
R:reel
O:England;Lincolnshire
Z:vmp.Ruairidh Greig, 2011
K:D
“as writ”d>e ff ee dd|A3 A BABc|dc d/c/B/A/ dd|d3f fa A2|
A2 B/ BAGFA2|AB c2Hd2″marked as 6( in MS” (2e//d// (4c//B//A//G//|F3DE2D2:|
|:FE FG AA BA|BA Bc/d/ c/d/c/B/A2|d2d2d2f2|fHa AA BBA2|
G2F2 GABc|d2e2d2 c/B/A/G/|F3DE2D2:|]

